!!!COM: Palestrina, Giovanni Perluigi da
!!!OPR: Missa Octavi toni
!!!OTL: Agnus II
**kern	**kern	**kern	**kern	**kern	**kern
*Ibass	*Itenor	*Itenor	*Icalto	*Icant	*Icant
!Bassus	!Tenor 2	!Tenor 1	!Altus	!Cantus 2	!Cantus 1
*clefF4	*clefGv2	*clefGv2	*clefG2	*clefG2	*clefG2
*k[]	*k[]	*k[]	*k[]	*k[]	*k[]
*G:mix	*G:mix	*G:mix	*G:mix	*G:mix	*G:mix
*M3/2	*M3/2	*M3/2	*M3/2	*M3/2	*M3/2
=1	=1	=1	=1	=1	=1
1r	1r	2G	1r	1r	1g
.	.	2B	.	.	.
2r	2r	2c	2r	2r	2e
=2	=2	=2	=2	=2	=2
1r	1r	1d	1r	1r	1f
2r	2r	2c	2r	2r	2e
=3	=3	=3	=3	=3	=3
1r	1r	2f	1r	1r	2d
.	.	2.e	.	.	2.g
2r	2r	.	2r	2r	.
.	.	4d	.	.	4f
=4	=4	=4	=4	=4	=4
1r	1r	1d	1r	1r	2f
.	.	.	.	.	1e
2r	2r	2c#	2r	2r	.
=5	=5	=5	=5	=5	=5
1G	1r	1d	2G	1r	2d
.	.	.	2B	.	2.g
2E	2r	2r	2c	2r	.
.	.	.	.	.	4e
=6	=6	=6	=6	=6	=6
1F	1r	2D	1d	1r	2.a
.	.	2F	.	.	.
.	.	.	.	.	4b
2E	2r	2G	2c	2r	2cc
=7	=7	=7	=7	=7	=7
2D	1r	2A	2f	1r	2.dd
1G	.	2B	2d	.	.
.	.	.	.	.	4cc
.	2r	2G	4e	2r	2b
.	.	.	4d	.	.
=8	=8	=8	=8	=8	=8
2F	1r	2A	1d	1r	2a
1E	.	2B	.	.	2.g
.	2r	2G	2c	2r	.
.	.	.	.	.	4a
=9	=9	=9	=9	=9	=9
1r	2G	2r	1d	1g	1b
.	2B	2G	.	.	.
2r	2c	2A	2r	2e	2a
=10	=10	=10	=10	=10	=10
1D	1d	4D	1r	1f	[1.a
.	.	4E	.	.	.
.	.	4F	.	.	.
.	.	4G	.	.	.
2AA	2c	[2A	2r	2e	.
=11	=11	=11	=11	=11	=11
2D	2f	4A]	1r	2d	2a]
.	.	4B	.	.	.
2C	2.e	2c	.	1g	2r
[2G	.	[2B	2r	.	2r
.	4d	.	.	.	.
=12	=12	=12	=12	=12	=12
4G]	2.d	4B]	2d	1.g	2r
4F	.	4A	.	.	.
1E	.	2G	1e	.	2r
.	4c	.	.	.	.
.	4c	2G	.	.	2g
.	4B	.	.	.	.
=13	=13	=13	=13	=13	=13
2D	2.d	1r	1f	2r	1a
2D	.	.	.	2r	.
.	4c	.	.	.	.
2E	2B	2r	4e	2g	2g
.	.	.	4d	.	.
=14	=14	=14	=14	=14	=14
1F	1A	1r	2.c	1a	1f
.	.	.	4B	.	.
2C	2E	2r	2c	2g	2e
=15	=15	=15	=15	=15	=15
1D	2F	2r	1.A	1f	2d
.	2D	2r	.	.	2dd
2AA	2r	2A	.	2e	2cc#
=16	=16	=16	=16	=16	=16
2r	1r	2B	1.d	2d	2dd
2r	.	2G	.	2g	2b
2D	2r	2d	.	2f#	2a
=17	=17	=17	=17	=17	=17
2E	1r	1.G	2B	1g	2g
2C	.	.	2e	.	2cc
2G	2r	.	2d	2g	2b
=18	=18	=18	=18	=18	=18
1C	2r	1G	1e	2r	[1.cc
.	2r	.	.	2r	.
2F	2A	2r	2c	2f	.
=19	=19	=19	=19	=19	=19
1F	1c	2r	1f	1a	1.cc]
.	.	2A	.	.	.
2C	2c	2c	2e	2g	.
=20	=20	=20	=20	=20	=20
1F	1c	2A	1f	1a	1r
.	.	2A	.	.	.
2D	2d	2F	2f	2b	2r
=21	=21	=21	=21	=21	=21
4C	1e	4E	2g	1cc	1r
4D	.	4F	.	.	.
4E	.	4G	2.g	.	.
4F	.	4A	.	.	.
2G	2d	2B	.	2b	2r
.	.	.	4f	.	.
=22	=22	=22	=22	=22	=22
2A	2c	4c	2.e	1a	1r
.	.	4d	.	.	.
1E	1B	1e	.	.	.
.	.	.	4d	.	.
.	.	.	2B	2g#	2r
=23	=23	=23	=23	=23	=23
1AA	1A	1e	1c	1.a	2r
.	.	.	.	.	2r
2AA	2e	2c	2A	.	2a
=24	=24	=24	=24	=24	=24
1E	1e	1B	1r	2r	1g
.	.	.	.	2r	.
2F	2c	2A	2r	2a	2f
=25	=25	=25	=25	=25	=25
1C	1c	2E	1r	1g	1e
.	.	2E	.	.	.
2D	2A	2F	2r	2f	2d
=26	=26	=26	=26	=26	=26
2.C	1.c	2G	1r	1e	1g
.	.	2C	.	.	.
4BB	.	.	.	.	.
2AA	.	2c	2r	2f	2a
=27	=27	=27	=27	=27	=27
2GG	2d	2B	1r	1g	2b
2C	2e	2G	.	.	2cc
2D	4d	[2d	2r	2f#	2a
.	4c	.	.	.	.
=28	=28	=28	=28	=28	=28
1.GG	4B	2d]	1d	1.g	1b
.	4c	.	.	.	.
.	2.d	1B	.	.	.
.	.	.	2g	.	2r
.	4G	.	.	.	.
=29	=29	=29	=29	=29	=29
2.C	1G	1c	1e	1r	1g
4BB	.	.	.	.	.
2AA	2r	2c	2f	2r	2cc
=30	=30	=30	=30	=30	=30
2GG	1r	1d	2g	1g	1b
2G	.	.	2d	.	.
2C	2r	2e	2g	2cc	2cc
=31	=31	=31	=31	=31	=31
2.G	1r	1d	1g	1b	1dd
4F	.	.	.	.	.
2E	2r	2e	2g	2cc	2g
=32	=32	=32	=32	=32	=32
4D	1r	1.A	1f	1dd	1.a
4E	.	.	.	.	.
4F	.	.	.	.	.
4G	.	.	.	.	.
2A	2r	.	2e	2cc#	.
=33	=33	=33	=33	=33	=33
1D	2r	1A	2d	1dd	2a
.	2d	.	2a	.	2f
2r	2e	2r	2g	2r	2g
=34	=34	=34	=34	=34	=34
1r	1d	1r	1f	1dd	2a
.	.	.	.	.	2d
2r	2c	2r	2e	2ee	[2g
=35	=35	=35	=35	=35	=35
1G	1B	1r	1g	1dd	4g]
.	.	.	.	.	4a
.	.	.	.	.	2b
2A	2A	2r	2e	2cc	2cc
=36	=36	=36	=36	=36	=36
2G	2r	1d	2g	2b	1dd
2F	2A	.	2r	2.a	.
2E	2B	[2e	2r	.	2r
.	.	.	.	4g	.
=37	=37	=37	=37	=37	=37
2C	2c	2e]	1r	1g	1r
1D	2A	1d	.	.	.
.	2A	.	2r	2f#	2r
=38	=38	=38	=38	=38	=38
1GG	1G	1B	1d	[1.g	1dd
2r	2r	2c	2c	.	2ee
=39	=39	=39	=39	=39	=39
1G	1d	2G	2B	1.g]	1dd
.	.	2B	2G	.	.
2C	2e	2c	[2g	.	2cc
=40	=40	=40	=40	=40	=40
2G	1d	2G	2g]	1r	2b
2D	.	1A	2.f	.	1a
2F	2c	.	.	2r	.
.	.	.	4e	.	.
=41	=41	=41	=41	=41	=41
2G	2B	4B	1d	1r	1g
.	.	4c	.	.	.
1D	1A	1d	.	.	.
.	.	.	2r	2r	2f#
=42	=42	=42	=42	=42	=42
2G	1G	1B	2d	1r	2.g
2G	.	.	2d	.	.
.	.	.	.	.	4f
2C	2r	2r	2c	2r	2e
=43	=43	=43	=43	=43	=43
1GG	2G	2r	1B	2g	1d
.	2G	2d	.	2g	.
2r	2D	2d	2A	2f	2r
=44	=44	=44	=44	=44	=44
1r	2.E	2c	2G	1e	1r
.	.	4B	2.g	.	.
.	4F	4A	.	.	.
2r	2G	2B	.	2d	2r
.	.	.	4f	.	.
=45	=45	=45	=45	=45	=45
1r	2C	2c	2e	1g	1r
.	1D	1A	1d	.	.
2r	.	.	.	2f#	2r
=46	=46	=46	=46	=46	=46
2G	2r	2.B	2d	2g	2g
2G	2d	.	2r	2r	2g
.	.	4G	.	.	.
2D	2d	2A	2r	2r	2f
=47	=47	=47	=47	=47	=47
2.E	2c	[1.G	2r	1r	1e
.	4B	.	2g	.	.
4F	4A	.	.	.	.
2G	2B	.	2g	2r	2d
=48	=48	=48	=48	=48	=48
2C	2c	2G]	2e	1r	1g
1D	1A	2r	2d	.	.
.	.	2r	2d	2r	2f#
=49	=49	=49	=49	=49	=49
2GG	2G	2r	2B	2g	2g
2GG	4D	2d	2G	2g	2b
.	4E	.	.	.	.
2D	4F	2d	[2A	2f	2a
.	4G	.	.	.	.
=50	=50	=50	=50	=50	=50
2AA	2A	1c	2A]	1e	1cc
2C	2E	.	1G	.	.
[2GG	2G	[2B	.	2d	[2dd
=51	=51	=51	=51	=51	=51
2GG]	2.d	2B]	2G	1g	2dd]
1D	.	1A	2A	.	1dd
.	4c	.	.	.	.
.	2A	.	2d	2f#	.
=52	=52	=52	=52	=52	=52
1.GG	1.B	1.G	1.d	1.g	1.b
==	==	==	==	==	==
*-	*-	*-	*-	*-	*-
!!!CDT: 1525/^1526/-1594/2/2
!!!OCY: Italia
!!!AGN: Mass (Tenor)
!!!AST: renaissance, vocal
!!!ASW: Hymn
!!!PWK: Masses, Book 11
!!!RNB: Cadence finals: A,C
!!!YOR: Le Opere Complete, v. 28, p. 114
!!!YOO: Rome, Italy: Fratelli Scalera
!!!END: 1992//
!!!EED: John Miller
!!!YEC: Copyright 2000, John Miller
!!!YEN: United States of America
!!!YEM: Rights to all derivative electronic formats reserved.
!!!YEM: Refer to licensing agreement for further details.
!!!YEM: This file must be accompanied by the licensing agreement.
!!!YEM: A copy of the licensing agreement may be found at http://www.music-cog.ohio-state.edu/HumdrumDatabases/Palestrina/license.txt
!!!EMD: converted to Humdrum by Bret Aarden
